src/assets/svg-raw/ai-edge-functions.svg

<svg width="24" height="24" viewBox="0 0 24 24" fill="none" xmlns="http://www.w3.org/2000/svg">
<g clip-path="url(#clip0_661_8000)">
<path fill-rule="evenodd" clip-rule="evenodd" d="M17.9509 20.7801C17.4263 20.8967 17.0956 21.4164 17.2122 21.941C17.3287 22.4656 17.8485 22.7963 18.373 22.6797C20.5237 22.2018 22.0539 20.2943 22.0539 18.0912V14.9813C22.0539 14.2475 22.3302 13.5407 22.8279 13.0015L23.7418 12.0115C24.0602 11.6665 24.0869 11.1434 23.8052 10.7678L22.6376 9.21102C22.2587 8.70576 22.0539 8.09123 22.0539 7.45966V4.61195C22.0539 2.40883 20.5237 0.501301 18.373 0.0233779C17.8485 -0.0931916 17.3287 0.23755 17.2122 0.762113C17.0956 1.28667 17.4263 1.80642 17.9509 1.92298C19.2112 2.20305 20.1079 3.32089 20.1079 4.61195V7.45966C20.1079 8.51228 20.4493 9.53649 21.0809 10.3786L21.7622 11.2871L21.3981 11.6816C20.5685 12.5802 20.1079 13.7584 20.1079 14.9813V18.0912C20.1079 19.3822 19.2112 20.5001 17.9509 20.7801ZM6.04891 1.92311C6.57347 1.80654 6.90421 1.2868 6.78764 0.762239C6.67107 0.237677 6.15133 -0.093066 5.62677 0.0235034C3.47612 0.501427 1.94595 2.40895 1.94595 4.61208V7.72191C1.94595 8.45569 1.66958 9.16256 1.17186 9.70175L0.258034 10.6917C-0.0604067 11.0367 -0.0870902 11.5599 0.194599 11.9355L1.36217 13.4922C1.74111 13.9975 1.94595 14.612 1.94595 15.2436V18.0913C1.94595 20.2944 3.47612 22.2019 5.62677 22.6799C6.15133 22.7964 6.67107 22.4657 6.78764 21.9411C6.90421 21.4166 6.57347 20.8968 6.04891 20.7803C4.78859 20.5002 3.89189 19.3823 3.89189 18.0913V15.2436C3.89189 14.191 3.55049 13.1667 2.91892 12.3247L2.23757 11.4162L2.60175 11.0216C3.43127 10.123 3.89189 8.94488 3.89189 7.72191V4.61208C3.89189 3.32102 4.78859 2.20318 6.04891 1.92311ZM14.6118 5.25149C12.7203 4.54218 10.7026 5.94045 10.7026 7.96057V8.75711V9.40567H10.0538C9.51639 9.40567 9.08078 9.84129 9.08078 10.3786C9.08078 10.916 9.51639 11.3516 10.0538 11.3516H10.7026V17.5139C10.7026 18.0512 11.1382 18.4868 11.6755 18.4868C12.2129 18.4868 12.6485 18.0512 12.6485 17.5139V11.3516H13.9457C14.483 11.3516 14.9186 10.916 14.9186 10.3786C14.9186 9.84129 14.483 9.40567 13.9457 9.40567H12.6485V8.75711V7.96057C12.6485 7.29913 13.3092 6.84129 13.9285 7.07354C14.4316 7.26222 14.9925 7.00729 15.1812 6.50415C15.3698 6.00101 15.1149 5.44017 14.6118 5.25149Z" fill="black"/>
</g>
<defs>
<clipPath id="clip0_661_8000">
<rect width="24" height="24" fill="white"/>
</clipPath>
</defs>
</svg>

<svg xmlns="http://www.w3.org/2000/svg" width="24" height="24" fill="currentColor" viewBox="0 0 24 24">
  <path fill-rule="evenodd" d="M17.95 20.78a.973.973 0 1 0 .423 1.9 4.7 4.7 0 0 0 3.68-4.589v-3.11c0-.733.277-1.44.775-1.98l.914-.99a.973.973 0 0 0 .063-1.243L22.638 9.21a2.92 2.92 0 0 1-.584-1.751V4.612A4.7 4.7 0 0 0 18.373.023a.973.973 0 1 0-.422 1.9 2.755 2.755 0 0 1 2.157 2.689V7.46c0 1.052.341 2.076.973 2.919l.681.908-.364.395a4.865 4.865 0 0 0-1.29 3.3v3.11a2.754 2.754 0 0 1-2.157 2.688ZM6.05 1.923a.973.973 0 0 0-.422-1.9 4.7 4.7 0 0 0-3.681 4.59v3.109c0 .734-.276 1.44-.774 1.98l-.914.99a.973.973 0 0 0-.063 1.243l1.167 1.557a2.92 2.92 0 0 1 .584 1.752v2.847a4.7 4.7 0 0 0 3.68 4.589.973.973 0 0 0 .423-1.9 2.755 2.755 0 0 1-2.157-2.689v-2.847a4.865 4.865 0 0 0-.973-2.92l-.681-.908.364-.394a4.865 4.865 0 0 0 1.29-3.3v-3.11c0-1.291.897-2.409 2.157-2.689Zm8.563 3.328c-1.892-.709-3.91.69-3.91 2.71v1.445h-.648a.973.973 0 1 0 0 1.946h.649v6.162a.973.973 0 0 0 1.946 0v-6.162h1.297a.973.973 0 0 0 0-1.946H12.65V7.96c0-.662.66-1.12 1.28-.887a.973.973 0 0 0 .683-1.823Z" clip-rule="evenodd"/>
</svg>
